packages/katcn/src/icons/svg/snow-solid.svg

<svg width="24" height="25" viewBox="0 0 24 25" fill="none" xmlns="http://www.w3.org/2000/svg">
<path d="M19.9 13.568L17.5 14.268L15.3 12.968L17.4 11.768L19.8 12.468C19.9 12.468 20.1 12.568 20.2 12.568C20.9 12.568 21.6 12.068 21.8 11.368C22 10.468 21.5 9.56802 20.6 9.36802L19.1 8.96802L19.5 7.46802C19.7 6.56802 19.2 5.66802 18.3 5.46802C17.4 5.26802 16.5 5.76802 16.3 6.66802L15.6 9.06802L13.5 10.268V7.56802L15.3 5.76802C16 5.06802 16 4.06802 15.3 3.36802C14.6 2.66802 13.6 2.66802 12.9 3.36802L12 4.56802L10.9 3.46802C10.2 2.76802 9.20001 2.76802 8.50001 3.46802C7.80001 4.16802 7.80001 5.16802 8.50001 5.86802L10.3 7.66802V10.168L8.20001 8.86802L7.50001 6.36802C7.30001 5.46802 6.40001 4.96802 5.50001 5.26802C4.60001 5.46802 4.10001 6.46802 4.30001 7.26802L4.70001 8.76802L3.20001 9.16802C2.30001 9.36802 1.80001 10.368 2.00001 11.168C2.30001 11.968 2.90001 12.468 3.70001 12.468C3.80001 12.468 4.00001 12.468 4.10001 12.368L6.50001 11.668L8.70001 12.968L6.60001 14.168L4.20001 13.468C3.30001 13.268 2.40001 13.768 2.20001 14.668C2.00001 15.568 2.50001 16.468 3.40001 16.668L4.90001 17.068L4.50001 18.568C4.30001 19.468 4.80001 20.368 5.70001 20.568C5.80001 20.568 6.00001 20.668 6.10001 20.668C6.80001 20.668 7.50001 20.168 7.70001 19.468L8.40001 17.068L10.5 15.868V18.368L8.70001 20.168C8.00001 20.868 8.00001 21.868 8.70001 22.568C9.40001 23.268 10.4 23.268 11.1 22.568L12.2 21.468L13.3 22.568C13.6 22.868 14.1 23.068 14.5 23.068C14.9 23.068 15.4 22.868 15.7 22.568C16.4 21.868 16.4 20.868 15.7 20.168L13.9 18.368V15.868L16 17.068L16.7 19.468C16.9 20.168 17.6 20.668 18.3 20.668C18.4 20.668 18.6 20.668 18.7 20.568C19.6 20.368 20.1 19.368 19.9 18.568L19.5 17.068L21 16.668C21.9 16.468 22.4 15.468 22.2 14.668C21.7 13.868 20.8 13.268 19.9 13.568Z" fill="black"/>
</svg>

<svg xmlns="http://www.w3.org/2000/svg" fill="none" viewBox="0 0 24 25"><path fill="#000" d="m19.9 13.568-2.4.7-2.2-1.3 2.1-1.2 2.4.7c.1 0 .3.1.4.1.7 0 1.4-.5 1.6-1.2.2-.9-.3-1.8-1.2-2l-1.5-.4.4-1.5c.2-.9-.3-1.8-1.2-2s-1.8.3-2 1.2l-.7 2.4-2.1 1.2v-2.7l1.8-1.8c.7-.7.7-1.7 0-2.4s-1.7-.7-2.4 0l-.9 1.2-1.1-1.1c-.7-.7-1.7-.7-2.4 0s-.7 1.7 0 2.4l1.8 1.8v2.5l-2.1-1.3-.7-2.5c-.2-.9-1.1-1.4-2-1.1-.9.2-1.4 1.2-1.2 2l.4 1.5-1.5.4c-.9.2-1.4 1.2-1.2 2 .3.8.9 1.3 1.7 1.3.1 0 .3 0 .4-.1l2.4-.7 2.2 1.3-2.1 1.2-2.4-.7c-.9-.2-1.8.3-2 1.2s.3 1.8 1.2 2l1.5.4-.4 1.5c-.2.9.3 1.8 1.2 2 .1 0 .3.1.4.1.7 0 1.4-.5 1.6-1.2l.7-2.4 2.1-1.2v2.5l-1.8 1.8c-.7.7-.7 1.7 0 2.4s1.7.7 2.4 0l1.1-1.1 1.1 1.1c.3.3.8.5 1.2.5s.9-.2 1.2-.5c.7-.7.7-1.7 0-2.4l-1.8-1.8v-2.5l2.1 1.2.7 2.4c.2.7.9 1.2 1.6 1.2.1 0 .3 0 .4-.1.9-.2 1.4-1.2 1.2-2l-.4-1.5 1.5-.4c.9-.2 1.4-1.2 1.2-2-.5-.8-1.4-1.4-2.3-1.1"/></svg>
